X: 063
T: Jenny Cameron
R: reel
M: C|
L: 1/8
Z: 2012 John Chambers <jc:trillian.mit.edu>
B: J. Anderson "Budget of Strathspeys, Reels and Country Dances" (Early 1800s) p.6 #3
F: http://imslp.org/wiki/Anderson%27s_Budget_of_Strathspeys,_Reels_and_Country_Dances_(Various)
K: D
g |\
f2(df) ecAc | acAc e2(eg) | f2(df) ecAc | dBGB d2d :|
g |\
(fa).e.c (ec).A.c | ecAc e2(eg) | faec efge | dBGB d2(dg) |
(fa).e.c (ec).A.c | ecAc e2(eg) | (af).g.e (fd).e.c | dBGB d2d |]

%%sep 2 1 500
%%sep 1 1 500

